X:1
T:Maid with the Flaxen Hair
T:Maid with the Flaxen Hair
T:"La Fille aux Cheveux de Lin"
T:C. Debussy
T:Arr. Miguel Bandelaria
T:CC Zero
T:CC Zero
C:C. Debussy
Z:Arr. Miguel Bandelaria
Z:CC Zero
%%score { ( 1 3 7 ) | ( 2 4 5 6 ) }
L:1/8
Q:1/4=57
M:3/4
K:Gb
V:1 treble nm="Piano" snm="Pno."
V:3 treble 
V:7 treble 
V:2 bass 
V:4 bass 
V:5 bass 
V:6 bass 
V:1
 d2- dB/G/ EG/B/ | dB/G/ EG/B/ GG/E/ | GF/E/ D4- | D4 EG | [DFA]3 [DFd] [EGB]G/B/ | %5
 Ad [=DFB]2 !arpeggio![EBf]2- | [EBf]2 B3 c | d2- dB/G/ EG/B/ | dB/G/ EG/B/ GG/E/ | GF/E/ D4- | %10
 [B,D]4[Q:1/4=40] z[Q:1/4=30] B,/D/ |[Q:1/4=60] EG/A/[Q:1/4=110] cd eg- | %12
[Q:1/4=60] gf/e/ d2- d/c/B/A/ | G/A/B- B/A/G- G/F/E- | E/D/C- C/D/_F/A/ c/d/_f/a/ | c'b/a/ g4 | %16
 ba/g/ e2- ed/c/ | BA/G/ E2- EE/=C/ ||[K:Ab] [G,B,E]4 CE/C/ | [G,B,E]4 ce/c/ || %20
[K:Gb] eB/=c/ e/f/=g/b/ e'2- | e'(3d'/e'/d'/ ba- a/g/f/e/ | e(3d/e/d/ B [EA]2 G/[FA]/ | %23
 [EB]>[DG] [B,E][DG] [EB][Gd] | [EB][DG] [B,E]2 [CG]2 | [EB]>[DG] [EB][DGd] [EBe][Gdg] | %26
 [Beb][Gdg] [CB]2 [A,D]2 | z2 z2 d'2- | d'2- d'b/g/ eg/b/ | d'b/g/ eg/b/ gg/e/ | g2 f2 e2 | %31
 d3 c BA | G/A/B- B/A/G- G/F/E- | E/D/E- E/D/E- E/D/E | %34
 E/[DG]/[EA]/[Gc]/ [Ad]/[ce]/[dg]/[ea]/ (3[gc'][ad'][c'e'] | [gbd'g']6- | [gb-d'-g']6 | [bd']6 | %38
 [bd']2 z4 |] %39
V:2
 z6 | z4 z [C,E,] | [G,,D,]6- | [G,,D,]4 z2 | [D,A,]3 [B,,F,B,] [E,B,][G,B,] | %5
 [D,A,]2 [B,,F,B,]2 !arpeggio![E,,B,,=G,B,]2- | [E,,B,,G,B,]2 z4 | [_F,G,B,]4 [G,A,=C]2 | %8
 [_F,G,B,]2 [G,A,=C]2 E,2 | D,6- | D,6 | !arpeggio![D,A,]6 | [D,G,B,D]4 z2 | %13
 [G,C]>[A,D] [G,C]>[F,B,] [E,A,]>[D,G,] | [C,_F,]6 | !arpeggio![G,CEG]6 | [A,EG]2 [D,A,C]4 | %17
 z2 [F,A,B,]4 ||[K:Ab] B,,B,,/C,/ E,4 | B,,B,,/C,/ E,/F,/G,/B,/ CE/C/ || %20
[K:Gb] EB,/=C/[K:treble] E/F/=G/B/ [_CE_G_c]2- | [CEGc][DFAd] [EGB][K:bass] [E,A,=CE]3 | %22
 [C,G,_C][D,A,D] [E,B,] [A,=C]2 D,- | B,>G, E,G, B,D | B,G, E,2 G,2 | %25
 [G,,D,B,]>[B,,E,G,] [D,G,B,][E,B,] [G,D][B,E] | [DG][B,E] [A,,E,G,]2 [D,F,]2 | [C,,G,,C,]6- | %28
 [C,,-G,,C,]6 | [EG]4 A2 | z6 | [G,,D,B,]6 | [G,C]>[G,D] [A,D]>[G,C] [E,A,]>[D,G,] | %33
 [C,F,]>[D,G,] [E,A,]>[D,G,] [C,F,]>[D,G,] | [E,A,]6 |[K:treble] !arpeggio![GBd]6- | [GBd]6 | %37
 [GBd]6 | [GBd]2 z4 |] %39
V:3
 x6 | z4 z [G,C] | [G,B,]6- | [G,B,]4 z2 | x6 | [DF]2 x4 | x6 | D4 E2 | D2 E2 [B,D][A,_C] | %9
 z2 D2- D/C/B,/-A,/ | G, x5 | !arpeggio![CD]6 | [GB]4 z2 | E>F E>D C>B, | A,6 | !arpeggio![ce]6 | %16
 c2 F4 | x6 ||[K:Ab] z2 z/ F,/G,/B,/- [F,A,B,]2 | x B,/C/ E/F/G/B/- [FAB]2 || %20
[K:Gb] [=GB]4 [e_g_c']2- | [egc'][fa] [eg] [EA=ce]2 z | [EG_c][FA] [EG] x2 _C | x6 | x6 | x6 | x6 | %27
 [G,CEG]6- | [G,CEG]6 | x6 | [GB]6 | x6 | E>F E>D C>B, | A,>B, C>B, A,>B, | C6 | x6 | x6 | x6 | %38
 x6 |] %39
V:4
 x6 | x6 | x6 | x6 | x6 | x6 | x6 | x6 | x4 z D,, | G,,6- | G,,6 | [G,,,-D,,G,,]6 | G,,,4 G,,,2 | %13
 x6 | z2 G,,,4 |{/C,,-} C,,6 | x6 | x2 B,, z B,,2- ||[K:Ab] E,,6 | E,,4 [E,B,]2 || %20
[K:Gb] [E,B,] x[K:treble] z4 | x3[K:bass] z A,,2 | x6 | %23
 [G,,D,]>[E,,B,,] [D,,G,,][E,,B,,] [G,,D,][B,,E,] | [G,,D,][E,,B,,] [C,,G,,]2 [D,,A,,]2 | x6 | x6 | %27
 x6 | x6 | [G,C]6 | [G,B,E]6 | x6 | x6 | x6 | x6 |[K:treble] !arpeggio![G,D]6- | [G,D]6 | [G,D]6 | %38
 z6 |] %39
V:5
 x6 | x6 | x6 | x6 | x6 | x6 | x6 | x6 | x6 | x6 | x F,/E,/ D,2 D,/C,/B,,/A,,/ | x6 | x6 | x6 | %14
 x6 | x6 | x6 | [A,,E,G,]2 B,,,4 ||[K:Ab] x B,,- B,,4- | x6 ||[K:Gb] x2[K:treble] x4 | %21
 x3[K:bass] x3 | x6 | x6 | x6 | x6 | x6 | x6 | x6 | x6 | x6 | x6 | x6 | x6 | x6 |[K:treble] x6 | %36
 !arpeggio![Dd]2 z2 z2 | x6 | x6 |] %39
V:6
 x6 | x6 | x6 | x6 | x6 | x6 | x6 | x6 | x6 | x6 | x6 | x6 | x6 | x6 | x6 | x6 | x6 | x6 || %18
[K:Ab] x6 | x6 ||[K:Gb] x2[K:treble] x4 | x3[K:bass] x3 | x6 | x6 | x6 | x6 | x6 | x6 | x6 | C,,6 | %30
 [E,,B,,]6 | x6 | x6 | x6 | x6 |[K:treble] x6 | x6 | x6 | x6 |] %39
V:7
 x6 | x6 | x6 | x6 | x6 | x6 | x6 | x6 | x6 | x6 | x6 | x6 | x6 | x6 | x6 | x6 | x6 | x6 || %18
[K:Ab] x6 | x6 ||[K:Gb] x6 | x6 | x6 | x6 | x6 | x6 | x6 | x6 | x6 | x6 | x6 | x6 | x6 | x6 | x6 | %35
 x6 | x6 | !arpeggio![gg']2 z4 | x6 |] %39

